X: 2132
T: KILLIECHASSIE
Q: "Strathspey."
R: Strathspey.
%R: strathspey
B: James Kerr "Merry Melodies" v.2 p.16 #132
Z: 2016 John Chambers <jc:trillian.mit.edu>
M: C
L: 1/16
K: G
ug2 |\
vdG3d3uB vG3uABg3 | dG3 edcB cA3A3ug |\
dG3d3B G3ABg3 | bagf vg3e dB3B2ug2 |\
vdB3d3uB vG3uABg3 |
dG3 edcB cA3A3ug |\
dG3dB3 G3ABg3 | bagf vg3ue dB3B2 ::\
ub2 |\
vg3udBb3 g3dBb3 | vg3ud edcB cA3A3ub |
g3dBg3 dg3Bg3 | eB3g3e dB3B3b |\
g3dBg3 eg3dg3 | cg3Bg3 c3A (ABc2) |\
dG3eB3 gB3a3uf | bagf g3ue dB3B2 |]
